!!!COM: Bach, Johann Sebastian
!!!CDT: 1685/3//-1750/7/28/
!!!OTL@@DE: Valet will ich dir geben
!!!AGN: 4-Part Chorale
!!!SCT: BH 024
!!!SCT: BWV 415
**harm	**root	**kern	**kern	**kern	**kern
!	!	!bass	!tenor	!alto	!soprno
*	*Iorgan	*Iorgan	*Iorgan	*Iorgan	*Iorgan
*M4/4	*M4/4	*M4/4	*M4/4	*M4/4	*M4/4
*met(c)	*met(c)	*met(c)	*met(c)	*met(c)	*met(c)
*MM60	*MM60	*MM60	*MM60	*MM60	*MM60
*k[f#c#g#d#a#e#]	*k[f#c#g#d#a#e#]	*k[f#c#g#d#a#e#]	*k[f#c#g#d#a#e#]	*k[f#c#g#d#a#e#]	*k[f#c#g#d#a#e#]
*F#:	*F#:	*F#:	*F#:	*F#:	*F#:
*>[A,A,B]	*>[A,A,B]	*>[A,A,B]	*>[A,A,B]	*>[A,A,B]	*>[A,A,B]
*>A	*>A	*>A	*>A	*>A	*>A
I	4DD	8F#	8A#	4c#	4f#
.	.	8E#	8G#	.	.
=1	=1	=1	=1	=1	=1
I	4DD	8F#	8A#	4f#	4cc#
.	.	8G#	8B	.	.
Ib	4DD	8A#	8c#	4f#	4cc#
.	.	8F#	8A#	.	.
IV	4GG	8B	4B	4f#	4dd#
.	.	8A#	.	.	.
viiob	4CC#	4G#	8B	[4b	4ee#
.	.	.	8c#	.	.
=2	=2	=2	=2	=2	=2
IVb	4GG	8D#	4d#	4b]	2ff#
.	.	8E#	.	.	.
I	4DD	4F#	8c#	8a#	.
.	.	.	8B	8g#	.
I;	4DD;	4FF#;	4c#;	4a#;	4ff#;
I	4DD	4f#	4cc#	8cc#	4aa#
.	.	.	.	8dd#	.
=3	=3	=3	=3	=3	=3
viioD7/vi	4AA#	4c##	4b	4ee#	4gg#
vi7	4BB	8d#	4a#	4dd#	4ff#
.	.	8c#	.	.	.
viioD7/V	4GG#	4B#	4a	4dd#	4ff#
V	4AA	4c#	4g#	4cc#	4ee#
=4	=4	=4	=4	=4	=4
I;	2.DD;	2.F#;	2.a#y;	2.cc#;	2.ff#;
=:|!	=:|!	=:|!	=:|!	=:|!	=:|!
*>B	*>B	*>B	*>B	*>B	*>B
I	4DD	4F#	8a#	4cc#	8ff#
.	.	.	8b	.	8gg#
=5	=5	=5	=5	=5	=5
I	4DD	8f#	4cc#	4ff#	4aa#
.	.	8e#	.	.	.
vi	4BB	8d#	4f#	8ff#	4aa#
.	.	8c#	.	8ee#	.
Vb/V	8EE	8B#	8g#	8dd#	4.gg#
V7/V	8EE	8G#	8f#	8b#	.
iii	8FF#	8A#	8e#	8cc#	.
viio/V	8GG#	8B#	8d#	8dd#	8ff#
!!linebreak: 2
=6	=6	=6	=6	=6	=6
V	8AA	8c#	4c#	8g#	8ee#
v7/vii	8GG#	8B#	.	8a#	8dd#
Vb/iii	4CC#	8A#	4B#	4b#	4ee#
.	.	8G##	.	.	.
iii;	4FF#;	4A#;	4e#;	4a#;	4cc#;
iii7	4FF#	4A#	8a#	[4cc#	4ee#
.	.	.	8g#	.	.
=7	=7	=7	=7	=7	=7
vii/V	4GG#	8d#	4f#	8cc#]	4ff#
.	.	8D#	.	8b#	.
Vb	4AA	8E#	4g#	[4cc#	4ee#
.	.	8F#	.	.	.
II	8EE	8G#	8g#	4cc#]	4dd#
vi7b	8BB	8F#	8a#	.	.
II7	4EE	8G#	8g#	4b#	4dd#
.	.	8GG#	8f#	.	.
=8	=8	=8	=8	=8	=8
V;	2.AA;	2.C#;	2.e#;	2.g#;	2.cc#;
Vb	4AA	4E#	4c#	4g#	4cc#
=9	=9	=9	=9	=9	=9
I	4DD	8F#	4c#	4f#	8a#
.	.	8G#	.	.	8b
I7	4DD	8A#	8f#	4f#	4cc#
.	.	8F#	8e	.	.
IV	8GG	4B	8d#	8f#	4dd#
viio7c	8CC#	.	8e#	8g#	.
I7b	4DD	8A#	8f#	4a#	4cc#
.	.	8G#	8e	.	.
=10	=10	=10	=10	=10	=10
V7b/ii	4BB	4F##	2d#	4a#	4cc#
ii	4EE	4G#	.	4g#	8b
.	.	.	.	.	8a#
VI;	4BB;	4D#;	4d#;	4f##;	4a#;
V7b/IV	4DD	4AA#	4e	4f#	4cc#
=11	=11	=11	=11	=11	=11
IV	4GG	8BB	4d#	4f#	4b
.	.	8C#	.	.	.
vi7	4BB	8D#	4d#	[4f#	4a#
.	.	8C#	.	.	.
ii7	4EE	8BB	4d#	4f#]	4g#
.	.	8GG#	.	.	.
V	4AA	4C#	8c#	4e#	4g#
.	.	.	8B	.	.
=12	=12	=12	=12	=12	=12
I;	2.DD;	2.FF#;	2.A#;	2.c#;	2.f#;
==	==	==	==	==	==
*-	*-	*-	*-	*-	*-
!!chor2scor: -l 2 -s 0.6 -o %b.pmx
!!!YEC: Copyright 1994, David Huron
!!!YEC: Changes/Additions 2001 by Craig Stuart Sapp
!!!YEN: United States of America
!!!SMA: 371 Bach Chorales, edited by Ludwig Erk, C.F. Peters
!!!PDT: 1850, 1865
!!!ONB: Harmony and Root analysis done manually
